Flat-Remix-Dark/apps/scalable/apport.svg

<svg xmlns="http://www.w3.org/2000/svg" width="384pt" height="384pt" version="1.1" viewBox="0 0 384 384">
 <path style="opacity:0.3" d="m 72.882816,148.90055 v 101.24608 h 0.0586 c -0.004,0.38283 -0.0586,0.7461 -0.0586,1.12892 0,65.43749 42.898434,118.12108 96.199214,118.12108 h 8.02735 29.77734 8.02734 c 53.30079,0 96.19922,-52.68359 96.19922,-118.12108 0,-0.38282 -0.0586,-0.74609 -0.0586,-1.12892 h 0.0586 V 148.90055 Z"/>
 <path d="m 191.99609,24.400547 c -51.64062,0 -93.828121,44.246094 -98.77734,101.246093 H 290.77734 C 285.82422,68.646641 243.63672,24.400547 191.99609,24.400547 Z M 43.101562,141.39664 c -10.996093,0 -19.851562,10.03516 -19.851562,22.5 0,12.46485 8.855469,22.5 19.851562,22.5 H 340.89062 c 11,0 19.85547,-10.03515 19.85547,-22.5 0,-12.46484 -8.85547,-22.5 -19.85547,-22.5 z m 9.925782,85.4961 c -10.996094,0 -19.851563,10.03515 -19.851563,22.5 0,12.46484 8.855469,22.5 19.851563,22.5 H 141.27734 L 67.9375,319.88102 c -9.523438,6.23047 -12.769531,19.94531 -7.269531,30.73828 5.5,10.79297 17.597656,14.47266 27.121093,8.23828 l 89.316408,-58.44531 v -73.51953 z m 153.859376,0 v 73.51953 l 89.3164,58.44531 c 9.52735,6.23438 21.625,2.55469 27.125,-8.23828 5.5,-10.79297 2.25391,-24.50781 -7.26953,-30.73828 l -73.33984,-47.98828 h 88.24609 c 11,0 19.85157,-10.03516 19.85157,-22.5 0,-12.46485 -8.85157,-22.5 -19.85157,-22.5 z m 0,0" style="fill:rgb(20.000%,20.000%,20.000%)"/>
 <path style="fill:rgb(100.000%,100.000%,100.000%);opacity:0.3" d="M 255.99414 32.533203 C 187.13998 32.533203 130.88997 91.529326 124.29102 167.5293 L 125.46289 167.5293 C 135.90575 96.416845 190.19152 42.533203 255.99414 42.533203 C 321.79679 42.533203 376.08385 96.416845 386.53125 167.5293 L 387.70312 167.5293 C 381.09897 91.529326 324.84831 32.533203 255.99414 32.533203 z M 57.46875 188.5293 C 42.807293 188.5293 31 201.90952 31 218.5293 C 31 220.23467 31.130176 221.9031 31.369141 223.5293 C 33.459021 209.30731 44.311709 198.5293 57.46875 198.5293 L 454.52148 198.5293 C 467.68311 198.5293 478.53499 209.30742 480.625 223.5293 C 480.86399 221.90303 480.99414 220.23474 480.99414 218.5293 C 480.99414 201.90952 469.18814 188.5293 454.52148 188.5293 L 57.46875 188.5293 z M 70.703125 302.52344 C 56.041668 302.52344 44.234375 315.90364 44.234375 332.52344 C 44.234375 334.22881 44.364551 335.89724 44.603516 337.52344 C 46.693394 323.30144 57.546084 312.52344 70.703125 312.52344 L 236.14062 312.52344 L 236.14062 302.52344 L 70.703125 302.52344 z M 275.84961 302.52344 L 275.84961 312.52344 L 441.28711 312.52344 C 454.44875 312.52344 465.29562 323.30155 467.38477 337.52344 C 467.62366 335.89717 467.75586 334.22888 467.75586 332.52344 C 467.75586 315.90364 455.95378 302.52344 441.28711 302.52344 L 275.84961 302.52344 z M 173.08594 372.52344 L 90.583984 426.50781 C 80.708126 432.96884 75.896757 445.4665 77.695312 457.47266 C 78.967112 448.97638 83.457334 441.17025 90.583984 436.50781 L 188.36914 372.52344 L 173.08594 372.52344 z M 323.625 372.52344 L 421.41211 436.50781 C 428.53877 441.17025 433.02703 448.97638 434.29883 457.47266 C 436.09738 445.4665 431.28797 432.96884 421.41211 426.50781 L 338.9082 372.52344 L 323.625 372.52344 z" transform="scale(0.75)"/>
 <path style="fill:rgb(0%,0%,0%);opacity:0.3" d="M 125.46289 157.5293 C 124.97861 160.82706 124.58347 164.16108 124.29102 167.5293 L 387.70312 167.5293 C 387.41044 164.16108 387.01574 160.82706 386.53125 157.5293 L 125.46289 157.5293 z M 31.369141 213.5293 C 31.130176 215.15549 31 216.82393 31 218.5293 C 31 235.1491 42.807293 248.5293 57.46875 248.5293 L 454.52148 248.5293 C 469.18815 248.5293 480.99414 235.1491 480.99414 218.5293 C 480.99414 216.82385 480.86399 215.15556 480.625 213.5293 C 478.53499 227.75119 467.68313 238.5293 454.52148 238.5293 L 57.46875 238.5293 C 44.311721 238.5293 33.459021 227.75129 31.369141 213.5293 z M 44.603516 327.52344 C 44.364551 329.14963 44.234375 330.81807 44.234375 332.52344 C 44.234375 349.14324 56.041668 362.52344 70.703125 362.52344 L 173.08594 362.52344 L 188.36914 352.52344 L 70.703125 352.52344 C 57.546096 352.52344 46.693396 341.74543 44.603516 327.52344 z M 467.38477 327.52344 C 465.29562 341.74533 454.44875 352.52344 441.28711 352.52344 L 323.625 352.52344 L 338.9082 362.52344 L 441.28711 362.52344 C 455.95378 362.52344 467.75586 349.14324 467.75586 332.52344 C 467.75586 330.81799 467.62366 329.1497 467.38477 327.52344 z M 236.14062 390.54883 L 117.05273 468.47656 C 104.35481 476.78907 88.223958 471.88281 80.890625 457.49219 C 79.260822 454.29393 78.209256 450.90346 77.695312 447.47266 C 76.701085 454.11462 77.673096 461.17824 80.890625 467.49219 C 88.223958 481.88281 104.35482 486.78907 117.05273 478.47656 L 236.14062 400.54883 L 236.14062 390.54883 z M 275.84961 390.54883 L 275.84961 400.54883 L 394.9375 478.47656 C 407.64062 486.78907 423.77018 481.88281 431.10352 467.49219 C 434.32104 461.17824 435.29306 454.11462 434.29883 447.47266 C 433.78488 450.90346 432.73332 454.29393 431.10352 457.49219 C 423.7702 471.88281 407.64063 476.78907 394.9375 468.47656 L 275.84961 390.54883 z" transform="scale(0.75)"/>
 <path d="m 72.882812,141.40055 v 101.24609 h 0.05859 c -0.0039,0.38282 -0.05859,0.7461 -0.05859,1.12891 0,65.4375 42.898438,118.12109 96.199218,118.12109 h 8.02734 V 204.40055 h 29.77735 v 157.49609 h 8.02734 c 53.30078,0 96.19922,-52.68359 96.19922,-118.12109 0,-0.38281 -0.0586,-0.74609 -0.0586,-1.12891 h 0.0586 V 141.40055 Z m 0,0" style="fill:rgb(83.137%,9.803%,9.803%)"/>
 <rect style="paint-order:markers stroke fill" width="29.777" height="157.496" x="177.11" y="204.4"/>
 <path style="opacity:0.3" d="M 236.14648 262.5332 L 236.14648 272.5332 L 275.84961 272.5332 L 275.84961 262.5332 L 236.14648 262.5332 z M 97.177734 313.5293 L 97.177734 315.0332 C 97.177734 314.52278 97.250526 314.03974 97.255859 313.5293 L 97.177734 313.5293 z M 97.177734 315.0332 L 97.177734 323.5293 L 97.255859 323.5293 C 97.250526 324.03974 97.177734 324.52278 97.177734 325.0332 C 97.177734 412.28319 154.37565 482.5293 225.44336 482.5293 L 236.14648 482.5293 L 236.14648 472.5293 L 225.44336 472.5293 C 154.37565 472.5293 97.177734 402.28319 97.177734 315.0332 z M 414.74023 313.5293 C 414.74023 314.03974 414.81836 314.52278 414.81836 315.0332 L 414.81836 313.5293 L 414.74023 313.5293 z M 414.81836 315.0332 C 414.81836 402.28319 357.62045 472.5293 286.55273 472.5293 L 275.84961 472.5293 L 275.84961 482.5293 L 286.55273 482.5293 C 357.62045 482.5293 414.81836 412.28319 414.81836 325.0332 C 414.81836 324.52278 414.74023 324.03974 414.74023 323.5293 L 414.81836 323.5293 L 414.81836 315.0332 z" transform="scale(0.75)"/>
 <path style="fill:#ffffff;opacity:0.3" d="M 97.177734 188.5332 L 97.177734 198.5332 L 414.81836 198.5332 L 414.81836 188.5332 L 97.177734 188.5332 z" transform="scale(0.75)"/>
</svg>

<svg width="512" height="512" version="1.1" viewBox="0 0 384 384" xmlns="http://www.w3.org/2000/svg" xmlns:xlink="http://www.w3.org/1999/xlink"><defs><clipPath><rect width="384" height="384"/></clipPath><clipPath><rect width="384" height="384"/></clipPath><clipPath><rect width="384" height="384"/></clipPath><clipPath><rect width="384" height="384"/></clipPath><clipPath><rect width="384" height="384"/></clipPath><clipPath><rect width="384" height="384"/></clipPath><clipPath><rect width="384" height="384"/></clipPath><clipPath><rect width="384" height="384"/></clipPath><clipPath><rect width="384" height="384"/></clipPath><clipPath><rect width="384" height="384"/></clipPath><clipPath><rect width="384" height="384"/></clipPath><clipPath><rect width="384" height="384"/></clipPath><clipPath><rect width="384" height="384"/></clipPath><clipPath><rect width="384" height="384"/></clipPath><clipPath><rect width="384" height="384"/></clipPath><clipPath><rect width="384" height="384"/></clipPath><clipPath><rect width="384" height="384"/></clipPath><clipPath><rect width="384" height="384"/></clipPath><clipPath><rect width="384" height="384"/></clipPath><clipPath><rect width="384" height="384"/></clipPath><clipPath><rect width="384" height="384"/></clipPath><clipPath><rect width="384" height="384"/></clipPath><clipPath><rect width="384" height="384"/></clipPath><clipPath><rect width="384" height="384"/></clipPath><clipPath><rect width="384" height="384"/></clipPath><clipPath><rect width="384" height="384"/></clipPath><clipPath><rect width="384" height="384"/></clipPath><clipPath><rect width="384" height="384"/></clipPath><clipPath><rect width="384" height="384"/></clipPath><clipPath><rect width="384" height="384"/></clipPath><clipPath><rect width="384" height="384"/></clipPath><clipPath><rect width="384" height="384"/></clipPath><clipPath><rect width="384" height="384"/></clipPath><clipPath><rect width="384" height="384"/></clipPath><clipPath><rect width="384" height="384"/></clipPath><clipPath><rect width="384" height="384"/></clipPath><clipPath><rect width="384" height="384"/></clipPath><clipPath><rect width="384" height="384"/></clipPath><clipPath><rect width="384" height="384"/></clipPath><clipPath><rect width="384" height="384"/></clipPath><clipPath><rect width="384" height="384"/></clipPath><clipPath><rect width="384" height="384"/></clipPath><clipPath><rect width="384" height="384"/></clipPath><clipPath><rect width="384" height="384"/></clipPath><clipPath><rect width="384" height="384"/></clipPath><clipPath><rect width="384" height="384"/></clipPath><clipPath><rect width="384" height="384"/></clipPath><clipPath><rect width="384" height="384"/></clipPath><clipPath><rect width="384" height="384"/></clipPath><clipPath><rect width="384" height="384"/></clipPath><clipPath id="d"><path d="m111 119h177v23h-177z"/></clipPath><clipPath><path d="m368.64 199.88c0-93.234-75.602-168.75-168.75-168.75-93.152 0-168.75 75.516-168.75 168.75s75.598 168.75 168.75 168.75c93.148 0 168.75-75.516 168.75-168.75z"/></clipPath><clipPath id="c"><path d="m177 130h45v89h-45z"/></clipPath><clipPath><path d="m368.64 199.88c0-93.234-75.602-168.75-168.75-168.75-93.152 0-168.75 75.516-168.75 168.75s75.598 168.75 168.75 168.75c93.148 0 168.75-75.516 168.75-168.75z"/></clipPath><clipPath id="b"><path d="m111 207h177v89h-177z"/></clipPath><clipPath><path d="m368.64 199.88c0-93.234-75.602-168.75-168.75-168.75-93.152 0-168.75 75.516-168.75 168.75s75.598 168.75 168.75 168.75c93.148 0 168.75-75.516 168.75-168.75z"/></clipPath><clipPath id="e"><rect width="384" height="384"/></clipPath><g clip-path="url(#e)"><g clip-path="url(#d)"></g><g clip-path="url(#c)"></g><g clip-path="url(#b)"></g></g><clipPath><rect width="384" height="384"/></clipPath><clipPath><rect width="384" height="384"/></clipPath><clipPath><rect width="384" height="384"/></clipPath><clipPath><rect width="384" height="384"/></clipPath><clipPath><rect width="384" height="384"/></clipPath><clipPath><rect width="384" height="384"/></clipPath><clipPath><rect width="384" height="384"/></clipPath><clipPath><rect width="384" height="384"/></clipPath><clipPath><rect width="384" height="384"/></clipPath><clipPath><rect width="384" height="384"/></clipPath><clipPath><rect width="384" height="384"/></clipPath><linearGradient id="a" x1="288" x2="24.407" y1="185.49" y2="439.32" gradientUnits="userSpaceOnUse"><stop stop-color="#fd3535" offset="0"/><stop stop-color="#951212" offset="1"/></linearGradient></defs><path d="m72.883 148.9v101.25h0.0586c-4e-3 0.38283-0.0586 0.7461-0.0586 1.1289 0 65.437 42.898 118.12 96.199 118.12h45.832c53.301 0 96.199-52.684 96.199-118.12 0-0.38282-0.0586-0.74609-0.0586-1.1289h0.0586v-101.25z" opacity=".3"/><path d="m192 24.401c-51.641 0-93.828 44.246-98.777 101.25h197.56c-4.9531-57-47.141-101.25-98.781-101.25zm-148.89 117c-10.996 0-19.852 10.035-19.852 22.5s8.8555 22.5 19.852 22.5h297.79c11 0 19.855-10.035 19.855-22.5s-8.8555-22.5-19.855-22.5zm9.9258 85.496c-10.996 0-19.852 10.035-19.852 22.5s8.8555 22.5 19.852 22.5h88.25l-73.34 47.988c-9.5234 6.2305-12.77 19.945-7.2695 30.738s17.598 14.473 27.121 8.2383l89.316-58.445v-73.52zm153.86 0v73.52l89.316 58.445c9.5274 6.2344 21.625 2.5547 27.125-8.2383s2.2539-24.508-7.2695-30.738l-73.34-47.988h88.246c11 0 19.852-10.035 19.852-22.5s-8.8516-22.5-19.852-22.5z" fill="#272a34"/><path transform="scale(.75)" d="m255.99 32.533c-68.854 0-125.1 58.996-131.7 135h1.1719c10.443-71.112 64.729-125 130.53-125 65.803 0 120.09 53.884 130.54 125h1.1719c-6.6042-76-62.855-135-131.71-135zm-198.53 156c-14.661 0-26.469 13.38-26.469 30 0 1.7054 0.13018 3.3738 0.36914 5 2.0899-14.222 12.943-25 26.1-25h397.05c13.162 0 24.014 10.778 26.104 25 0.23899-1.6263 0.36914-3.2946 0.36914-5 0-16.62-11.806-30-26.473-30zm13.234 113.99c-14.661 0-26.469 13.38-26.469 30 0 1.7054 0.13018 3.3738 0.36914 5 2.0899-14.222 12.943-25 26.1-25h165.44v-10zm205.15 0v10h165.44c13.162 0 24.009 10.778 26.098 25 0.23889-1.6263 0.37109-3.2946 0.37109-5 0-16.62-11.802-30-26.469-30zm-102.76 70-82.502 53.984c-9.8759 6.461-14.687 18.959-12.889 30.965 1.2718-8.4963 5.762-16.302 12.889-20.965l97.785-63.984zm150.54 0 97.787 63.984c7.1267 4.6624 11.615 12.469 12.887 20.965 1.7986-12.006-3.0109-24.504-12.887-30.965l-82.504-53.984z" fill="#fff" opacity=".2"/><path transform="scale(.75)" d="m125.46 157.53c-0.48428 3.2978-0.87942 6.6318-1.1719 10h263.41c-0.29268-3.3682-0.68738-6.7022-1.1719-10zm-94.094 56c-0.23896 1.6262-0.36914 3.2946-0.36914 5 0 16.62 11.807 30 26.469 30h397.05c14.667 0 26.473-13.38 26.473-30 0-1.7054-0.13015-3.3737-0.36914-5-2.09 14.222-12.942 25-26.104 25h-397.05c-13.157 0-24.01-10.778-26.1-25zm13.234 113.99c-0.23896 1.6262-0.36914 3.2946-0.36914 5 0 16.62 11.807 30 26.469 30h102.38l15.283-10h-117.67c-13.157 0-24.01-10.778-26.1-25zm422.78 0c-2.0892 14.222-12.936 25-26.098 25h-117.66l15.283 10h102.38c14.667 0 26.469-13.38 26.469-30 0-1.7054-0.1322-3.3737-0.37109-5zm-231.24 63.025-119.09 77.928c-12.698 8.3125-28.829 3.4062-36.162-10.984-1.6298-3.1983-2.6814-6.5887-3.1953-10.02-0.99423 6.642-0.02222 13.706 3.1953 20.02 7.3333 14.391 23.464 19.297 36.162 10.984l119.09-77.928zm39.709 0v10l119.09 77.928c12.703 8.3125 28.833 3.4062 36.166-10.984 3.2175-6.314 4.1895-13.378 3.1953-20.02-0.51395 3.4308-1.5655 6.8213-3.1953 10.02-7.3333 14.391-23.463 19.297-36.166 10.984z" opacity=".5"/><path d="m72.883 141.4v101.25h0.05859c-0.0039 0.38282-0.05859 0.7461-0.05859 1.1289 0 65.438 42.898 118.12 96.199 118.12h45.832c53.301 0 96.199-52.684 96.199-118.12 0-0.38281-0.0586-0.74609-0.0586-1.1289h0.0586v-101.25z" fill="url(#a)"/><rect x="182.8" y="204.4" width="18.387" height="157.5" opacity=".6" stroke-width=".78581" style="paint-order:markers stroke fill"/><path transform="scale(.75)" d="m97.18 313.53v1.5039c0-0.51042 0.07278-0.99347 0.07812-1.5039zm0 1.5039v8.4961h0.07812c-0.0053 0.51044-0.07812 0.99349-0.07812 1.5039 0 87.25 57.198 157.5 128.27 157.5h38.703v-10h-38.703c-71.068 0-128.27-70.246-128.27-157.5zm317.56-1.5039c0 0.51044 0.0781 0.99349 0.0781 1.5039v-1.5039zm0.0781 1.5039c0 87.25-57.198 157.5-128.27 157.5h-22.396v10h22.396c71.068 0 128.27-70.246 128.27-157.5 0-0.51042-0.0781-0.99347-0.0781-1.5039h0.0781z" opacity=".3"/><path transform="scale(.75)" d="m97.178 188.53v10h317.64v-10z" fill="#fff" opacity=".2"/></svg>
